build/logo/DDoSSolid.svg

<svg xmlns="http://www.w3.org/2000/svg" fill="none" viewBox="0 0 24 24" focusable="false"><path d="M0 0H24V24H0z"/><path fill="#74767B" fill-rule="evenodd" d="M4 5.92267C4 5.32617 4.40601 4.80615 4.98462 4.6615L11.2725 3.0896C11.75 2.97015 12.25 2.97015 12.7275 3.0896L19.0154 4.6615C19.594 4.80615 20 5.32617 20 5.92267L20 11.1531C20 14.2562 18.4014 17.1404 15.77 18.785L12.689 20.7107C12.2673 20.9741 11.7327 20.9741 11.311 20.7107L8.22998 18.785C5.59863 17.1404 4 14.2562 4 11.1531L4 5.92267ZM8.41309 13.9383C8.66895 14.0461 8.93701 14.1 9.2168 14.1L14.4111 14.1001C14.7549 14.1 15.084 14.0338 15.3984 13.9014C15.7021 13.7734 15.9712 13.593 16.2051 13.36C16.4395 13.1268 16.6211 12.8588 16.7495 12.556C16.8118 12.4102 16.8594 12.2614 16.8926 12.1094C16.9307 11.9338 16.9497 11.754 16.9497 11.57C16.9497 11.3956 16.9326 11.2247 16.8979 11.0574C16.8691 10.9171 16.8276 10.7792 16.7744 10.6439C16.7217 10.5109 16.6592 10.3842 16.5859 10.2636C16.502 10.1248 16.4043 9.9942 16.293 9.87183C16.1885 9.75675 16.0754 9.65283 15.9539 9.56006C15.8352 9.4696 15.7085 9.38975 15.5737 9.3205C15.4375 9.25031 15.2969 9.19324 15.1523 9.14929C15.0708 9.12451 14.9878 9.10394 14.9038 9.08752C14.8154 8.81567 14.6924 8.5589 14.5337 8.3172C14.4404 8.17517 14.3374 8.04199 14.2251 7.9176C14.1028 7.78284 13.969 7.65839 13.8242 7.54437C13.6768 7.42847 13.5217 7.32666 13.3589 7.23889C13.2109 7.159 13.0566 7.09076 12.896 7.03424C12.7456 6.98132 12.5933 6.93982 12.4385 6.90973C12.2341 6.86993 12.0259 6.8501 11.814 6.8501C11.5758 6.8501 11.3431 6.87492 11.1157 6.92456C10.926 6.96655 10.7332 7.0274 10.5508 7.10419C10.3625 7.18335 10.1848 7.27832 10.0176 7.38904C9.83984 7.50696 9.67334 7.64282 9.51904 7.79657C9.35889 7.95567 9.21826 8.12742 9.09717 8.31183C8.99072 8.47308 8.89917 8.64404 8.82275 8.82471C8.74398 9.00981 8.68343 9.19889 8.64111 9.39197C8.59131 9.61713 8.56689 9.84778 8.56689 10.0838C8.44824 10.1229 8.33301 10.173 8.22168 10.234C8.11646 10.2917 8.01782 10.3574 7.92529 10.4313C7.83032 10.507 7.74194 10.5912 7.66064 10.684C7.57422 10.7824 7.49854 10.8871 7.43311 10.998C7.37622 11.0949 7.32715 11.1965 7.28613 11.3029C7.24463 11.411 7.21289 11.521 7.18994 11.6329C7.16333 11.7659 7.1499 11.9016 7.1499 12.04C7.1499 12.189 7.16528 12.3348 7.19629 12.4771C7.22314 12.6017 7.26221 12.7236 7.31299 12.8431C7.3623 12.9593 7.42139 13.0692 7.48975 13.1729C7.56665 13.2891 7.65552 13.3973 7.75635 13.4977C7.854 13.5951 7.95947 13.6812 8.07227 13.756C8.17896 13.8268 8.29272 13.8876 8.41309 13.9383Z"/></svg>

<svg xmlns="http://www.w3.org/2000/svg" fill="none" viewBox="0 0 24 24" focusable="false"><path fill="#74767B" fill-rule="evenodd" d="M4 5.92c0-.6.4-1.12.98-1.26l6.29-1.58c.48-.11.98-.11 1.45 0l6.29 1.58c.58.14.99.66.99 1.26v5.23c0 3.1-1.6 5.99-4.23 7.63l-3.09 1.93a1.3 1.3 0 0 1-1.37 0l-3.09-1.93A8.99 8.99 0 0 1 4 11.15zm4.41 8.01c.25.11.52.17.8.17h5.2c.34 0 .67-.07.98-.2q.465-.195.81-.54c.23-.24.42-.51.54-.81.07-.14.11-.29.15-.45.04-.17.05-.35.05-.53s-.01-.35-.05-.52c-.03-.14-.07-.28-.12-.41s-.12-.26-.19-.38a2.446 2.446 0 0 0-.63-.7c-.12-.1-.25-.18-.38-.24q-.21-.105-.42-.18l-.25-.06a3.2 3.2 0 0 0-1.08-1.54c-.15-.12-.3-.22-.47-.31-.14-.08-.3-.14-.46-.2-.15-.05-.3-.1-.46-.13-.2-.04-.41-.05-.62-.05-.24 0-.47.02-.7.07-.19.04-.38.1-.56.18-.19.08-.37.17-.54.28-.18.12-.34.26-.5.41-.16.16-.3.33-.42.52-.1.16-.2.33-.27.51q-.12.27-.18.57c-.05.22-.08.45-.08.69-.12.04-.23.09-.34.15s-.21.12-.3.2c-.09.07-.18.16-.26.25-.09.1-.17.2-.23.31-.06.1-.11.2-.15.31s-.07.22-.1.33c-.02.13-.04.27-.04.41a2.1 2.1 0 0 0 .17.8c.05.11.11.22.17.33.08.11.17.22.27.32s.2.19.32.26c.1.07.22.13.34.18"/></svg>
